X:233
T:Easter Elchies
R:Reel
C:William Marshall
B:The Athole Collection
M:C|
L:1/8
K:F
C|F2 Fd cAGA|F2 FA cfag|fdcA GFDG|FCDE F2 ~F2:|
a|fc fg/a/ gdde|~fc fg/a/ cfaf|bgaf gfdg|fcde ~f2 fa|~fc fg/a/ gdde|
fadf cfAc|BGAF GABd|FCDE F2 ~F||

